!!!COM: Burhonov, Mutal
!!!CDT: b.1916
!!!OTL: National Anthem, Uzbekistan
!!!ENC: Davis, Matthew J.
!!Vocal Line Only
**kern
*clefG2
*k[b-e-a-d-]
*A-:
*M4/4
=1-
2r
4r
8.e-
16e-
==!|:2
2.a-
6b-
6a-
6b-
=3
8.cc
16b-
2a-
8g
8a-
=4
2.b-
8.a-
16g
=5
2.f
8.e-
16e-
=6
4b-
4b-
4ff
8ee-
8dd-
=7
4ee-
[4ee-
8ee-]
8dd-
8.cc
16dd-
=8
[2ee-
8ee-]
8dd-
8.cc
16b-
=9
[2a-
8a-]
8r
8e-
8e-
=10
4a-
8.a-
16a-
4b-
[4b-
=11
8b-]
8cc
8.b-
16a-
2b-
=12
8f
8f
4f
4a-
4a-
=13
4.b-
8a-
4b-
8.cc
16dd-
=14
2.ee-
8ff
8gg
=15
2aa-
4gg
4ff
=16
4.ee-
8ff
2ee-
=17
4.dd-
8cc
4b-
8a-
8b-
=18
2.cc
8.a-
16a-
=19
2.dd-
8.cc
16dd-
=20
4ee-
[4ee-
8ee-]
8ff
8.ee-
16dd-
=21
2.ee-
8b-
16b-
=22
4ee-
8dd-
8cc
4b-
8b-
8cc
=23
8.a-
16cc
2b-
8ff
8ff
=24
4ee-
8dd-
8cc
4b-
8.a-
16b-
=25
!First Ending
2.cc
4b-
=26
[2a-
8a-]
8r
8.e-
16e-
==:|!27
!Second Ending
2.cc
8ee-
8ff
=28
[1aa-
=29
8aa-]
8r
4r
2r
==|!
*-
